Papirus/64x64/apps/almanah.svg

<?xml version="1.0" encoding="UTF-8" standalone="no"?>
<svg
   id="_图层_1"
   version="1.1"
   viewBox="0 0 64 64" width="64" height="64"
   sodipodi:docname="almanah.svg"
   xml:space="preserve"
   inkscape:version="1.4 (e7c3feb100, 2024-10-09)"
   xmlns:inkscape="http://www.inkscape.org/namespaces/inkscape"
   xmlns:sodipodi="http://sodipodi.sourceforge.net/DTD/sodipodi-0.dtd"
   xmlns="http://www.w3.org/2000/svg"
   xmlns:svg="http://www.w3.org/2000/svg"><sodipodi:namedview
     id="namedview26"
     pagecolor="#505050"
     bordercolor="#eeeeee"
     borderopacity="1"
     inkscape:showpageshadow="0"
     inkscape:pageopacity="0"
     inkscape:pagecheckerboard="0"
     inkscape:deskcolor="#505050"
     inkscape:zoom="10.6875"
     inkscape:cx="32"
     inkscape:cy="26.760234"
     inkscape:window-width="1920"
     inkscape:window-height="939"
     inkscape:window-x="0"
     inkscape:window-y="34"
     inkscape:window-maximized="1"
     inkscape:current-layer="_图层_1" /><!-- Generator: Adobe Illustrator 29.0.1, SVG Export Plug-In . SVG Version: 2.1.0 Build 192)  --><defs
     id="defs6"><style
       id="style1">
      .st0 {
        fill-opacity: .5;
      }

      .st0, .st1, .st2, .st3, .st4, .st5, .st6, .st7 {
        fill: #fff;
      }

      .st8 {
        fill: #133c9a;
      }

      .st2, .st9 {
        display: none;
      }

      .st3 {
        fill-opacity: .2;
      }

      .st4 {
        fill-opacity: .9;
      }

      .st10 {
        fill: #3370ff;
      }

      .st11 {
        fill: url(#_未命名的渐变_3);
      }

      .st12 {
        fill: url(#_未命名的渐变);
      }

      .st5 {
        fill-opacity: .3;
      }

      .st6 {
        fill-opacity: 0;
      }

      .st7 {
        fill-opacity: .7;
      }

      .st13 {
        fill: #00d6b9;
      }

      .st14 {
        fill: url(#_未命名的渐变_2);
      }
    </style><radialGradient
       id="_未命名的渐变"
       data-name="未命名的渐变"
       cx="123.9"
       cy="-40.2"
       fx="123.9"
       fy="-40.2"
       r="59.4"
       gradientTransform="translate(-26.8 25.5) scale(.6 -.7)"
       gradientUnits="userSpaceOnUse"><stop
         offset="0"
         stop-color="#db202e"
         id="stop1" /><stop
         offset="1"
         stop-color="#e01b24"
         id="stop2" /></radialGradient><radialGradient
       id="_未命名的渐变_2"
       data-name="未命名的渐变 2"
       cx="67.6"
       cy="26.8"
       fx="67.6"
       fy="26.8"
       r="105.2"
       gradientTransform="translate(-26.6 25.3) scale(.6 -.7)"
       gradientUnits="userSpaceOnUse"><stop
         offset="0"
         stop-color="#ffb648"
         id="stop3" /><stop
         offset="1"
         stop-color="#ff7800"
         stop-opacity="0"
         id="stop4" /></radialGradient><radialGradient
       id="_未命名的渐变_3"
       data-name="未命名的渐变 3"
       cx="61.7"
       cy="18.6"
       fx="61.7"
       fy="18.6"
       r="68"
       gradientTransform="matrix(0.6,0,0,-0.7,-26.8,25.8)"
       gradientUnits="userSpaceOnUse"><stop
         offset="0"
         stop-color="#c64600"
         id="stop5" /><stop
         offset="1"
         stop-color="#a51d2d"
         id="stop6" /></radialGradient></defs><path
     class="st1"
     d="M 47.5,64.1 H 13.8 C 6.2,64.1 0,57.8 0,50.3 V 13.7 C 0,6.2 6.2,0 13.7,0 H 50.3 C 57.8,0 64,6.2 64,13.7 V 50.3 C 64,57.8 57.8,64 50.3,64 h -2.9 0.1 z"
     id="path6"
     style="fill:#c2352a;fill-opacity:1"
     sodipodi:nodetypes="cssssssssccc" /><g
     id="g59"
     transform="matrix(1.420013,0,0,1.1428132,-14.150422,-4.5917205)"><path
       style="opacity:0.2;stroke-width:1.12409"
       d="M 19.391507,4 C 15.644163,4 10,8.4492307 10,15.678696 V 49.467547 C 10,53.094534 13.337949,60 19.457399,60 h 0.651139 V 4 Z"
       id="path2"
       sodipodi:nodetypes="ssssccs" /><rect
       style="opacity:0.2"
       width="20"
       height="5"
       x="35"
       y="31"
       rx="1.5"
       ry="1.5"
       id="rect3" /><rect
       style="fill:#d8d8d8"
       width="20"
       height="5"
       x="35"
       y="30"
       rx="1.5"
       ry="1.5"
       id="rect4" /><path
       style="opacity:0.2"
       d="m 35,28 c -5,0 -5,5 -5,5 v 4 H 28.5 C 27,37 27,38.5 27,38.5 v 8 c 0,1.5 1.5,1.5 1.5,1.5 h 13 C 43,48 43,46.5 43,46.5 v -8 C 43,37 41.5,37 41.5,37 H 40 v -4 c 0,0 0,-5 -5,-5 z m 0,2 c 3,0 3,3 3,3 v 4 h -6 v -4 c 0,0 0,-3 3,-3 z"
       id="path4" /><path
       style="fill:#fec006"
       d="m 35,27 c -5,0 -5,5 -5,5 v 4 H 28.5 C 27,36 27,37.5 27,37.5 v 8 c 0,1.5 1.5,1.5 1.5,1.5 h 13 C 43,47 43,45.5 43,45.5 v -8 C 43,36 41.5,36 41.5,36 H 40 v -4 c 0,0 0,-5 -5,-5 z m 0,2 c 3,0 3,3 3,3 v 4 h -6 v -4 c 0,0 0,-3 3,-3 z"
       id="path5-4" /><rect
       style="fill:#999999"
       width="6"
       height="3"
       x="36"
       y="31"
       rx="1.5"
       ry="1.5"
       id="rect5" /></g></svg>

<svg xmlns="http://www.w3.org/2000/svg" width="64" height="64" version="1.1">
 <rect style="opacity:0.2" width="44" height="56" x="10" y="5" rx="3" ry="3"/>
 <rect style="fill:#c2352a" width="44" height="56" x="10" y="4" rx="3" ry="3"/>
 <path style="opacity:0.2" d="M 13 4 C 11.338 4 10 5.338 10 7 L 10 57 C 10 58.662 11.338 60 13 60 L 18 60 L 18 4 L 13 4 z"/>
 <path style="opacity:0.2;fill:#ffffff" d="M 13 4 C 11.338 4 10 5.338 10 7 L 10 8 C 10 6.338 11.338 5 13 5 L 51 5 C 52.662 5 54 6.338 54 8 L 54 7 C 54 5.338 52.662 4 51 4 L 13 4 z"/>
 <rect style="opacity:0.2" width="20" height="5" x="35" y="31" rx="1.5" ry="1.5"/>
 <rect style="fill:#d8d8d8" width="20" height="5" x="35" y="30" rx="1.5" ry="1.5"/>
 <path style="opacity:0.2" d="M 35,28 C 30,28 30,33 30,33 V 37 H 28.5 C 27,37 27,38.5 27,38.5 V 46.5 C 27,48 28.5,48 28.5,48 H 41.5 C 43,48 43,46.5 43,46.5 V 38.5 C 43,37 41.5,37 41.5,37 H 40 V 33 C 40,33 40,28 35,28 Z M 35,30 C 38,30 38,33 38,33 V 37 H 32 V 33 C 32,33 32,30 35,30 Z"/>
 <path style="fill:#fec006" d="M 35,27 C 30,27 30,32 30,32 V 36 H 28.5 C 27,36 27,37.5 27,37.5 V 45.5 C 27,47 28.5,47 28.5,47 H 41.5 C 43,47 43,45.5 43,45.5 V 37.5 C 43,36 41.5,36 41.5,36 H 40 V 32 C 40,32 40,27 35,27 Z M 35,29 C 38,29 38,32 38,32 V 36 H 32 V 32 C 32,32 32,29 35,29 Z"/>
 <rect style="fill:#999999" width="6" height="3" x="36" y="31" rx="1.5" ry="1.5"/>
</svg>
